X: 33542
T: Rait Castle
R: jig
M: 6/8
K: Bminor
B2 B cBA|Bba fed|cAA FAE-|EFA cBA|
B2 B cBA|Bba fed|cAA cfe|cBB B2 A:|
Bbb Bae|fba fed|cAA FAE-|EFA cBA|
Bbb Bae|fba fed|cAA cfe|cBB B2 A|
Bbb Bae|fba fed|cAA FAE-|EFA cBA|
B2 B cBA|Bba fed|cAA cfe|cBA B3||

